svgs/materials/communication/contact_emergency.svg

<svg xmlns="http://www.w3.org/2000/svg" enable-background="new 0 0 24 24" height="24" viewBox="0 0 24 24" width="24"><g><rect fill="none" height="24" width="24"/></g><g><path d="M22,3H2C0.9,3,0,3.9,0,5v14c0,1.1,0.9,2,2,2h20c1.1,0,1.99-0.9,1.99-2L24,5C24,3.9,23.1,3,22,3z M9,8c1.65,0,3,1.35,3,3 s-1.35,3-3,3s-3-1.35-3-3S7.35,8,9,8z M2.08,19c1.38-2.39,3.96-4,6.92-4s5.54,1.61,6.92,4H2.08z M20.97,9.85l-0.75,1.3l-1.47-0.85 V12h-1.5v-1.7l-1.47,0.85l-0.75-1.3L16.5,9l-1.47-0.85l0.75-1.3l1.47,0.85V6h1.5v1.7l1.47-0.85l0.75,1.3L19.5,9L20.97,9.85z"/></g></svg>

<?xml version="1.0" encoding="UTF-8" standalone="no"?>
<svg
   enable-background="new 0 0 24 24"
   height="24"
   viewBox="0 0 24 24"
   width="24"
   version="1.1"
   id="svg10"
   sodipodi:docname="contact_emergency.svg"
   inkscape:version="1.2 (dc2aeda, 2022-05-15)"
   xmlns:inkscape="http://www.inkscape.org/namespaces/inkscape"
   xmlns:sodipodi="http://sodipodi.sourceforge.net/DTD/sodipodi-0.dtd"
   xmlns="http://www.w3.org/2000/svg"
   xmlns:svg="http://www.w3.org/2000/svg">
  <defs
     id="defs14" />
  <sodipodi:namedview
     id="namedview12"
     pagecolor="#ffffff"
     bordercolor="#000000"
     borderopacity="0.25"
     inkscape:showpageshadow="2"
     inkscape:pageopacity="0.0"
     inkscape:pagecheckerboard="0"
     inkscape:deskcolor="#d1d1d1"
     showgrid="false"
     inkscape:zoom="9.8333333"
     inkscape:cx="5.4915254"
     inkscape:cy="12"
     inkscape:window-width="1309"
     inkscape:window-height="456"
     inkscape:window-x="0"
     inkscape:window-y="25"
     inkscape:window-maximized="0"
     inkscape:current-layer="svg10" />
  <path
     id="rect2"
     style="fill:none"
     d="M 0,0 H 24 V 24 H 0 Z" />
  <path
     d="M 22,3 H 2 C 0.9,3 0,3.9 0,5 v 14 c 0,1.1 0.9,2 2,2 h 20 c 1.1,0 1.99,-0.9 1.99,-2 L 24,5 C 24,3.9 23.1,3 22,3 Z M 9,8 c 1.65,0 3,1.35 3,3 0,1.65 -1.35,3 -3,3 C 7.35,14 6,12.65 6,11 6,9.35 7.35,8 9,8 Z M 2.08,19 C 3.46,16.61 6.04,15 9,15 c 2.96,0 5.54,1.61 6.92,4 z M 20.97,9.85 20.22,11.15 18.75,10.3 V 12 h -1.5 V 10.3 L 15.78,11.15 15.03,9.85 16.5,9 15.03,8.15 15.78,6.85 17.25,7.7 V 6 h 1.5 V 7.7 L 20.22,6.85 20.97,8.15 19.5,9 Z"
     id="path6" />
</svg>
